alcon.svg

<svg viewBox="0 0 24 24" xmlns="http://www.w3.org/2000/svg"><path d="M7.58209 14.7423L8.95525 14.7423L8.95525 9.81681L7.58209 9.81681L7.58209 14.7423L7.58209 14.7423ZM2.68662 9.90638L2.77613 9.72729C2.74627 9.78694 2.71641 9.84666 2.68662 9.90638L2.68662 9.90638ZM4.74631 9.72729L4.83582 9.87652C4.80596 9.81681 4.77617 9.75716 4.74631 9.72729L4.74631 9.72729ZM4.83582 9.87652L4.74631 9.72729C4.50746 9.33921 4.11943 9.16015 3.76121 9.16015C3.49257 9.16015 3.04477 9.33921 2.77613 9.72729L0 14.7721L1.76118 14.7423L2.26868 13.8467L5.2239 13.8467L5.67169 14.7423L7.49258 14.7423L4.83582 9.87652L4.83582 9.87652ZM2.89555 12.7122L3.73135 11.1303L4.59702 12.7122L2.89555 12.7122L2.89555 12.7122ZM16.6567 11.19L16.6567 11.19C16.6567 11.19 16.6567 11.19 16.6865 11.19L16.6567 11.19L16.6567 11.19ZM19.0745 12.2348C18.9551 11.787 18.8656 11.3989 17.7611 11.2198C17.4329 11.1601 16.9851 11.19 16.6567 11.19C16.3283 11.19 15.9105 11.1601 15.5821 11.2198C14.4478 11.3989 14.3881 11.787 14.2389 12.2348C14.2089 12.4138 14.2089 12.8317 14.2089 12.9809C14.2089 13.1602 14.2687 13.8169 14.2984 13.9063C14.4179 14.4138 14.806 14.7125 15.5821 14.7721C15.791 14.7721 16.2387 14.8617 16.6567 14.8316C17.0746 14.8617 17.5821 14.8018 17.791 14.7721C18.6865 14.6526 18.9253 14.4138 19.0447 13.9063C19.0447 13.8169 19.1343 13.1602 19.1343 12.9809C19.1343 12.8317 19.1045 12.4138 19.0745 12.2348L19.0745 12.2348ZM17.6716 13.369C17.6418 13.578 17.4626 13.6974 17.1343 13.7272C17.0448 13.7272 16.8359 13.7272 16.6567 13.7272L16.6567 13.7272L16.6567 13.7272L16.6567 13.7272C16.4776 13.7272 16.2686 13.7272 16.1791 13.7272C15.8508 13.6974 15.7016 13.578 15.6417 13.369C15.6417 13.3094 15.6119 13.0407 15.6119 12.9809C15.6119 12.9213 15.6119 12.7423 15.6119 12.6526C15.6716 12.4736 15.7016 12.3242 16.1791 12.2348C16.3283 12.2348 16.5373 12.205 16.6567 12.205L16.6567 12.205L16.6567 12.205L16.6567 12.205C16.8059 12.205 16.9851 12.2348 17.1343 12.2348C17.6119 12.3242 17.6418 12.4736 17.7015 12.6526C17.7313 12.7423 17.7313 12.9213 17.7313 12.9809C17.7313 13.0407 17.7015 13.3392 17.6716 13.369L17.6716 13.369ZM24 12.205C24 11.9064 23.8209 11.3989 22.7463 11.2198C22.388 11.1601 22.179 11.19 21.8507 11.19C21.4328 11.19 20.985 11.3691 20.7463 11.6079C20.7463 11.6079 20.7463 11.6079 20.7164 11.6079L20.7164 11.19L19.3432 11.19L19.3432 14.7423L20.7164 14.7423L20.7164 12.9809C20.7164 12.7122 20.8358 12.5034 21.1342 12.3242C21.2836 12.2646 21.4328 12.2348 21.6715 12.2348C21.9402 12.2348 22.0298 12.2348 22.179 12.2646C22.5372 12.384 22.6268 12.5034 22.6268 12.8317L22.6268 14.7423L24 14.7423L24 12.205L24 12.205ZM11.7313 14.8316C11.3134 14.8316 10.8358 14.7721 10.6269 14.7721C9.85078 14.7125 9.46269 14.4138 9.37312 13.9063C9.34326 13.7868 9.2537 13.1602 9.2537 12.9809C9.2537 12.8317 9.28356 12.384 9.31342 12.2348C9.43283 11.7571 9.52234 11.4288 10.6269 11.2497C10.9552 11.19 11.4029 11.19 11.7313 11.19C12.0597 11.19 12.4776 11.19 12.8358 11.2497C13.2538 11.3093 13.5223 11.4586 13.6716 11.6377L12.6866 12.8915C12.6866 12.8019 12.6866 12.7122 12.6567 12.6526C12.597 12.4736 12.5672 12.3242 12.0895 12.2348C11.9403 12.2348 11.8805 12.205 11.7313 12.205C11.5821 12.205 11.4029 12.2348 11.2537 12.2348C10.7761 12.3242 10.7463 12.4736 10.6866 12.6526C10.6567 12.7423 10.6567 12.9213 10.6567 12.9809C10.6567 13.0407 10.6866 13.3392 10.7164 13.369C10.7463 13.578 10.9254 13.6974 11.2537 13.7272C11.3433 13.7272 11.5522 13.7272 11.7313 13.7272C11.9105 13.7272 12.1194 13.7272 12.209 13.7272C12.6866 13.6974 13.4328 13.5482 13.9701 12.9213C13.9701 12.9213 13.9104 13.8467 13.9104 13.9661C13.7911 14.4436 13.6119 14.7125 12.8358 14.7721C12.6268 14.7721 12.1492 14.8316 11.7313 14.8316L11.7313 14.8316Z" fill="#1476c6"/></svg>

<svg viewBox="0 0 24 24" xmlns="http://www.w3.org/2000/svg"><path d="M7.582 14.742h1.373V9.817H7.582v4.925ZM2.687 9.906l.09-.179-.09.18Zm2.06-.179.089.15c-.03-.06-.06-.12-.09-.15Zm.089.15-.09-.15a1.159 1.159 0 0 0-.985-.567c-.268 0-.716.18-.985.567L0 14.772l1.761-.03.508-.895h2.955l.448.895h1.82L4.837 9.877Zm-1.94 2.835.835-1.582.866 1.582H2.896Zm13.76-1.522h.03-.03Zm2.419 1.045c-.12-.448-.21-.836-1.314-1.015-.328-.06-.776-.03-1.104-.03-.329 0-.746-.03-1.075.03-1.134.179-1.194.567-1.343 1.015-.03.179-.03.597-.03.746 0 .18.06.836.09.925.119.508.507.806 1.283.866.209 0 .657.09 1.075.06.418.03.925-.03 1.134-.06.895-.12 1.134-.358 1.254-.866 0-.09.09-.746.09-.925 0-.15-.03-.567-.06-.746Zm-1.403 1.134c-.03.209-.21.328-.538.358h-.955c-.328-.03-.477-.149-.537-.358 0-.06-.03-.328-.03-.388v-.328c.06-.18.09-.329.567-.418.15 0 .358-.03.478-.03.149 0 .328.03.477.03.478.09.508.239.567.418.03.09.03.268.03.328s-.03.358-.06.388ZM24 12.205c0-.299-.18-.806-1.254-.985-.358-.06-.567-.03-.895-.03-.418 0-.866.18-1.105.418h-.03v-.418h-1.373v3.552h1.373v-1.761c0-.269.12-.478.418-.657.15-.06.299-.09.538-.09.268 0 .358 0 .507.03.358.12.448.24.448.568v1.91H24v-2.537Zm-12.269 2.627c-.418 0-.895-.06-1.104-.06-.776-.06-1.164-.358-1.254-.866-.03-.12-.12-.746-.12-.925 0-.15.03-.597.06-.746.12-.478.21-.806 1.314-.985.328-.06.776-.06 1.104-.06.329 0 .747 0 1.105.06.418.06.686.209.836.388l-.985 1.254c0-.09 0-.18-.03-.24-.06-.178-.09-.328-.568-.417-.149 0-.209-.03-.358-.03s-.328.03-.477.03c-.478.09-.508.239-.567.418-.03.09-.03.268-.03.328s.03.358.06.388c.03.209.208.328.537.358h.955c.478-.03 1.224-.179 1.761-.806 0 0-.06.926-.06 1.045-.119.478-.298.747-1.074.806-.21 0-.687.06-1.105.06Z" fill="#1476c6"/></svg>
